resources/svg/minor-hashtag.svg

<svg xmlns="http://www.w3.org/2000/svg" viewBox="0 0 20 20" fill="currentColor"><path fill="#5C5F62" d="M14.1644 3.01361C14.7092 3.1044 15.0772 3.61963 14.9864 4.1644L14.6805 6H16C16.5523 6 17 6.44772 17 7C17 7.55229 16.5523 8 16 8H14.3471L13.6805 12H16C16.5523 12 17 12.4477 17 13C17 13.5523 16.5523 14 16 14H13.3471L12.9864 16.1644C12.8956 16.7092 12.3804 17.0772 11.8356 16.9864C11.2908 16.8956 10.9228 16.3804 11.0136 15.8356L11.3195 14H7.34713L6.98639 16.1644C6.8956 16.7092 6.38037 17.0772 5.8356 16.9864C5.29083 16.8956 4.92281 16.3804 5.01361 15.8356L5.31954 14H4C3.44772 14 3 13.5523 3 13C3 12.4477 3.44772 12 4 12H5.65287L6.31954 8H4C3.44772 8 3 7.55229 3 7C3 6.44772 3.44772 6 4 6H6.65287L7.01361 3.8356C7.1044 3.29083 7.61963 2.92281 8.1644 3.01361C8.70917 3.1044 9.07719 3.61963 8.98639 4.1644L8.68046 6H12.6529L13.0136 3.8356C13.1044 3.29083 13.6196 2.92281 14.1644 3.01361ZM8.34713 8L7.68046 12H11.6529L12.3195 8H8.34713Z"/></svg>

<svg xmlns="http://www.w3.org/2000/svg" viewBox="0 0 20 20" fill="currentColor"><path d="M14.164 3.014a1 1 0 0 1 .822 1.15l-.306 1.836h1.32a1 1 0 1 1 0 2h-1.653l-.666 4h2.319a1 1 0 1 1 0 2h-2.653l-.36 2.164a1 1 0 1 1-1.973-.328l.306-1.836h-3.973l-.36 2.164a1 1 0 1 1-1.973-.328l.306-1.836h-1.32a1 1 0 1 1 0-2h1.653l.667-4h-2.32a1 1 0 1 1 0-2h2.653l.36-2.164a1 1 0 1 1 1.973.328l-.306 1.836h3.973l.36-2.164a1 1 0 0 1 1.151-.822Zm-5.817 4.986-.667 4h3.973l.666-4h-3.972Z"/></svg>
